X:3
T:Gan Ainm
M:6/8
L:1/8
R:jig
N:Learned from Solstice Festival 2000 workshop
K:G
|:~B3 G2D|GAG G2A|~B3 G2B|A2B cBA|
~B3 G2D|GAG GBc|ded dBG|A2B cBA:|
|:B2d ded|ded ded|B2d ded|e2f g3|
B2d ded|ded def|gfe dBG|A2B cBA:|G6||
